!!!!SEGMENT: pl-lzu--m-15111--001-004_noskowski-zygmunt--spiewnik-dla-dzieci-op-34-4-zmarzlak.krn
!!!cenid: 18xx:4701
!!!COM: Noskowski, Zygmunt
!!!COM-rismID: pe106604
!!!CDT: 1846/05/02-1909/07/23
!!!CNT: Polish
!!!GTL: Śpiewnik dla dzieci, op. 34
!!!OTL: 4. Zmarźlak
!!!OMV: 004
!!!PDT: 1890
!!!AGN: Secular; Song; Children
!!!YEC: Copyright 2022 Narodowy Instytut Fryderyka Chopina (https://polishscores.org)
!!!YEM: License CC-BY-4.0 (https://creativecommons.org/licenses/by/4.0)
!!!SMS-siglum: PL-LŹu
!!!SMS-shelfmark: M 15111
!!!SMS-variant:
!!!SMS-altvar:
!!!SMS-shelfwork: 001-004 G
!!!NIFC-rismSourceID: 1001234040
!!!NIFC-rismChildID: 1001234040
!!!NIFC-islandoraID: pl-lzu:5455
!!!URL-pdf-islandora: https://repozytorium.nifc.pl/islandora/object/pl-lzu%3A5455/datastream/PDF/view
!!!URL-scan: https://polish.musicsources.pl/pl/lokalizacje/galeria/druki-muzyczne/23228/11 @EN{Scan on Polish Music Sources Website} @PL{Skany w portalu Dziedzictwo Muzyki Polskiej w otwartym dostępie}
!!!IIIF:
!!!ONB-nifc:
!!!AIN: 1 piano 1 vox
!!!key: D-
!!!OMD: Allegretto.
**kern	**kern	**dynam	**kern	**text	**text	**dynam
*part2	*part2	*part2	*part1	*part1	*part1	*part1
*staff3	*staff2	*staff2/3	*staff1	*staff1	*staff1	*staff1
*I"[Piano]	*I"[Piano]	*	*I"[Voice]	*	*	*
*I'pf	*I'pf	*	*I'V	*	*	*
*Ipiano	*Ipiano	*	*Ivox	*	*	*
*ICklav	*ICklav	*	*ICvox	*	*	*
*IGacmp	*IGacmp	*	*IGsolo	*	*	*
*clefF4	*clefG2	*	*clefG2	*	*	*
*k[b-e-a-d-g-]	*k[b-e-a-d-g-]	*	*k[b-e-a-d-g-]	*	*	*
*D-:	*D-:	*	*D-:	*	*	*
*M2/4	*M2/4	*	*M2/4	*	*	*
=1	=1	=1	=1	=1	=1	=1
!	!LO:TX:a:i:rj:t=Niezbyt prędko.	!LO:DY:rj	!	!	!	!
8FL 8D-'\	8a-L 8d-'/	mf	2r	.	.	.
8F 8D-'\	8a- 8d-'/	.	.	.	.	.
8F 8D-'\	8a- 8d-'/	.	.	.	.	.
8FJ 8D-'\	8a-J 8d-'/	.	.	.	.	.
=2	=2	=2	=2	=2	=2	=2
8FL 8D-'\	8a-L 8d-'/	.	2r	.	.	.
8F 8D-'\	8a- 8d-'/	.	.	.	.	.
8F 8D-'\	8a- 8d-'/	.	.	.	.	.
8FJ 8D-'\	8a-J 8d-'/	.	.	.	.	.
=3!|:	=3!|:	=3!|:	=3!|:	=3!|:	=3!|:	=3!|:
*	*	*	*	*v:1	*v:2	*
!	!	!LO:DY:rj	!LO:TX:a:i:t=con anima	!	!	!LO:DY:rj
8FL 8D-'\	8a-L 8d-'/	p	8a-/	A	A	mf
8G- 8D-'\	8b- 8d-'/	.	8b-/	wi-	czy	.
8F 8D-'\	8a- 8d-'/	.	8a-/	-dzi-	nie	.
8FJ 8D-'\	8dd-J 8d-'/	.	8dd-\	-cie	wiesz,	.
=4	=4	=4	=4	=4	=4	=4
8FL 8D-'\	8a-L 8d-'/	.	8a-/	wy	mi-	.
8G- 8D-'\	8b- 8d-'/	.	8b-/	zmar-	-ły	.
8F 8D-'\	8a- 8d-'/	.	8a-/	-źla-	bra-	.
8FJ 8D-'\	8dd-J 8d-'/	.	8dd-\	-ka,	-cie,	.
!!LO:LB:g=original
=5	=5	=5	=5	=5	=5	=5
*	*	*	*	*v:1	*v:2	*
8D-'\L	8a-L 8e- 8c'/	.	8a-/	Jak	Ja-	.
8D-'\	8g- 8d- 8B-'/	.	8g-/	się	-ka	.
8D-'\	8f 8c 8A-'/	.	8f/	to	na	.
8D-'\J	8e-J 8B- 8G-'/	.	8e-/	on	to	.
=6	=6	=6	=6	=6	=6	=6
8DD-'/L	4f 4d- 4A-/	.	4f/	gnie-	ra-	.
8DD-'/	.	.	.	.	.	.
8DD-'/	8d- 8A- 8F/	.	8d-/	-wa,	-da,	.
8DD-/J	8r	.	8r	.	.	.
=7	=7	=7	=7	=7	=7	=7
8AA-'/L	8e-L 8c 8A-'/	.	8e-/	W rę-	Gdy	.
8AA-'/	8f 8c 8A-'/	.	8f/	-ce	mróz	.
8AA-'/	8e- 8c 8A-'/	.	8e-/	chu-	ści-	.
8AA-'/J	8a-J 8e- 8c'/	.	8a-/	-cha,	-śnie,	.
=8	=8	=8	=8	=8	=8	=8
8A-L 8D-'\	8fL 8d-'/	.	8f/	pod	wi-	.
8A- 8D-'\	8g- 8d-'/	.	8g-/	nos	-cher	.
8A- 8D-'\	8f 8d-'/	.	8f/	dmu-	świ-	.
8FJ 8D-'\	8a-J 8d-'/	.	8a-/	-cha,	-śnie,	.
!!LO:LB:g=original
=9	=9	=9	=9	=9	=9	=9
*	*	*	*	*v:1	*v:2	*
8E-L 8BB-'/	8gnL 8d-'/	.	8gn/	Pios-	Śnieg	.
8E-J 8BB-'/	8dd-J 8d-'/	.	8dd-\	-nek	na	.
8E-L 8EE-'/	8ccL 8g 8d-'/	.	8cc\	nic	zie-	.
8E-J 8EE-/	8b-J 8g 8d-'/	.	8b-\	nie	-mię	.
=10	=10	=10	=10	=10	=10	=10
8E-L 8AA-'/	4cc 4a- 4c/	.	4cc\	śpie-	pa-	.
8E- 8AA-'/	.	.	.	.	.	.
8E- 8AA-'/	8a- 8c/	.	8a-/	-wa.	-da?	.
8E-J 8AA-'/	8r	.	8r	.	.	.
=11:|!	=11:|!	=11:|!	=11:|!	=11:|!	=11:|!	=11:|!
*	*	*	*	*v:3	*	*
!	!LO:TX:a:i:t=Meno mosso	!	!LO:TX:a:i:t=Wolniej	!	!	!
8AA-\L	(8.ee-\L	.	8.ee-\	Oj	.	.
(8cJ (8G-\	.	.	.	.	.	.
.	16dd-\Jk	.	16dd-\	nie	.	.
4e- 4A-\))	8cc\L	.	8cc\	w rę-	.	.
.	8b-\J)	.	8b-\	-ce	.	.
=12	=12	=12	=12	=12	=12	=12
8AA-\L	(8a-/L	.	8a-/	wte-	.	.
(8d-J (8F\	8b-/J	.	8b-/	-dy	.	.
4f 4A-\))	8a-\L	.	8a-/	dmu-	.	.
.	8dd-\J)	.	8dd-,\	-chaj,	.	.
!!LO:PB:g=original
=13	=13	=13	=13	=13	=13	=13
8AA-/	(8e-/L	.	8e-/	Lecz	.	.
4c 4G-\	8b-/J	.	8b-/	ser-	.	.
.	8g-/L	.	8g-/	-ce	.	.
8c 8G-\	16f/L	.	(16f/LL	za-	.	.
.	16e-/JJ)	.	16e-/JJ)	.	.	.
=14	=14	=14	=14	=14	=14	=14
8DD-/	(4f/	.	4f/	-grze-	.	.
4d- 4A-\	.	.	.	.	.	.
.	8a-/)	.	8a-/	-waj,	.	.
8d- 8c-X\	8r	.	8r	.	.	.
=15	=15	=15	=15	=15	=15	=15
8BB-/	(<8.g-/L	<	8.g-/	Stań	.	.
4d- 4G-\	.	.	.	.	.	.
.	16a-/Jk	.	16a-/	do	.	.
.	8b-\L	[	8b-/	pra-	.	.
8GG-/	8cc\J)	.	8cc\	-cy,	.	.
=16	=16	=16	=16	=16	=16	=16
8FF/	(<8cc\L	>	8cc\	jak	.	.
4d- 4A- 4D-\	8dd-\J	.	8dd-\	ju-	.	.
.	8a-/L	.	8a-/	-na-	.	.
8d- 8A- 8D-\	8f/J)	]	8f/	-cy	.	.
!!LO:LB:g=original
=17	=17	=17	=17	=17	=17	=17
4EE-/	(8.b-/L	.	8.b-/	I	.	.
.	16a-/Jk	.	16a-/	pio-	.	.
4d- 4B- 4G-\	8g-/L	.	8g-/	-sen-	.	.
.	8f/J)	.	8f/	-ki	.	.
=18	=18	=18	=18	=18	=18	=18
(4G- 4AA-\	8e-L 8c/	.	(8e-/L	śpie-	.	.
.	8a-/J	.	8a-/J)	.	.	.
4F 4D-\)	4d-/	.	4d-/	-waj!	.	.
*	*clefF4	*	*	*	*	*
=19	=19	=19	=19	=19	=19	=19
8AA-L 8DD-'/	8A-L 8F'\	mf	2r	.	.	.
8AA- 8DD-'/	8B- 8F'\	.	.	.	.	.
8AA- 8DD-'/	8A- 8F'\	>	.	.	.	.
8AA-J 8DD-'/	8d-J 8F'\	.	.	.	.	.
=20	=20	=20	=20	=20	=20	=20
2AA- 2DD-;/	2d- 2F;\	]	2r;	.	.	.
==	==	==	==	==	==	==
*-	*-	*-	*-	*-	*-	*-
!!!system-decoration: p1{p2}
!!!RDF**kern: > = above
!!!RDF**kern: < = below
!!!ENC: Andrzej Gręziak
!!!END: 2025-03-03
!!!ENC: Marta Lawrence
!!!END: 2025-03-18
